public/illustration/in.svg

<svg width="32" height="32" viewBox="0 0 32 32" fill="none" xmlns="http://www.w3.org/2000/svg">
<g clip-path="url(#clip0_744_5249)">
<path d="M6.27081 0C2.82236 0 0 2.82228 0 6.27081V25.7302C0 29.1786 2.82228 32 6.27081 32H25.7302C29.1788 32 32 29.1788 32 25.7302V6.27081C32 2.82236 29.1788 0 25.7302 0H6.27081ZM7.848 5.28064C9.50147 5.28064 10.5199 6.36611 10.5514 7.79295C10.5514 9.18828 9.5014 10.3042 7.81603 10.3042H7.785C6.16301 10.3042 5.11465 9.18833 5.11465 7.79295C5.11465 6.36614 6.19476 5.28064 7.848 5.28064ZM22.0967 11.9494C25.2767 11.9494 27.6605 14.0279 27.6605 18.4943V26.8323H22.8279V19.0534C22.8279 17.0985 22.1284 15.7649 20.3796 15.7649C19.0445 15.7649 18.2487 16.6639 17.8993 17.5321C17.7716 17.8428 17.7402 18.2767 17.7402 18.7113V26.8323H12.9077C12.9077 26.8323 12.9711 13.6549 12.9077 12.2905H17.7412V14.3498C18.3834 13.3589 19.5322 11.9494 22.0967 11.9494ZM5.39971 12.2915H10.2323V26.8324H5.39971V12.2915Z" fill="#FB0021"/>
</g>
<defs>
<clipPath id="clip0_744_5249">
<rect width="32" height="32" fill="white"/>
</clipPath>
</defs>
</svg>

<svg xmlns="http://www.w3.org/2000/svg" width="32" height="32" fill="none" viewBox="0 0 32 32"><g clip-path="url(#a)"><path fill="#fb0021" d="M6.27 0C2.823 0 0 2.822 0 6.27v19.46C0 29.18 2.822 32 6.27 32h19.46c3.45 0 6.27-2.821 6.27-6.27V6.27C32 2.823 29.179 0 25.73 0zm1.578 5.28c1.653 0 2.672 1.086 2.703 2.513 0 1.395-1.05 2.511-2.735 2.511h-.031c-1.622 0-2.67-1.116-2.67-2.511 0-1.427 1.08-2.512 2.733-2.512m14.249 6.67c3.18 0 5.563 2.078 5.563 6.544v8.338h-4.832v-7.779c0-1.954-.7-3.288-2.448-3.288-1.335 0-2.131.899-2.48 1.767-.128.31-.16.745-.16 1.18v8.12h-4.832s.063-13.177 0-14.542h4.833v2.06c.642-.991 1.791-2.4 4.356-2.4M5.4 12.29h4.832v14.541H5.4z"/></g><defs><clipPath id="a"><path fill="#fff" d="M0 0h32v32H0z"/></clipPath></defs></svg>
